packages/ui-icons/svg/Line/prerequisite.svg

<svg viewBox="0 0 1920 1920" version="1.1" xmlns="http://www.w3.org/2000/svg">
    <path d="M1652.32217,1040.53436 L258.811557,1040 C203.494929,1040 160,1082.749 160,1136.07837 L160,1664.34912 C160,1717.62506 203.048827,1760 258.421218,1760 L1661.57878,1760 C1716.95117,1760 1760,1717.62506 1760,1664.34912 L1760,1136.07837 C1760,1082.80243 1707.69456,1040.53436 1652.37793,1040.53436 L1652.32217,1040.53436 Z M808.96,1358.48 L885.12,1358.48 C885.12,1348.02661 886.146656,1337.48005 888.2,1326.84 C890.253344,1316.19995 893.706642,1306.49338 898.56,1297.72 C903.413358,1288.94662 909.853293,1281.85336 917.88,1276.44 C925.906707,1271.02664 935.706609,1268.32 947.28,1268.32 C964.453419,1268.32 978.546612,1273.63995 989.56,1284.28 C1000.57339,1294.92005 1006.08,1309.7599 1006.08,1328.8 C1006.08,1340.74673 1003.37336,1351.38662 997.96,1360.72 C992.54664,1370.05338 985.826707,1378.4533 977.8,1385.92 C969.773293,1393.3867 960.906715,1400.19997 951.2,1406.36 C941.493285,1412.52003 932.34671,1418.58664 923.76,1424.56 C906.959916,1436.13339 891.000076,1447.51994 875.88,1458.72 C860.759924,1469.92006 847.600056,1482.1466 836.4,1495.4 C825.199944,1508.6534 816.333366,1523.67992 809.8,1540.48 C803.266634,1557.28008 800,1577.06655 800,1599.84 L1087.84,1599.84 L1087.84,1531.52 L902.48,1531.52 C912.186715,1518.07993 923.386603,1506.32005 936.08,1496.24 C948.773397,1486.15995 961.839933,1476.73338 975.28,1467.96 C988.720067,1459.18662 1002.0666,1450.32004 1015.32,1441.36 C1028.5734,1432.39996 1040.42661,1422.41339 1050.88,1411.4 C1061.33339,1400.38661 1069.7333,1387.78674 1076.08,1373.6 C1082.4267,1359.41326 1085.6,1342.42677 1085.6,1322.64 C1085.6,1303.5999 1081.96004,1286.42674 1074.68,1271.12 C1067.39996,1255.81326 1057.60006,1242.93339 1045.28,1232.48 C1032.95994,1222.02661 1018.68008,1214.00003 1002.44,1208.4 C986.199919,1202.79997 969.12009,1200 951.2,1200 C927.679882,1200 906.866757,1204.01329 888.76,1212.04 C870.653243,1220.06671 855.626726,1231.26659 843.68,1245.64 C831.733274,1260.01341 822.773363,1276.81324 816.8,1296.04 C810.826637,1315.26676 808.21333,1336.07989 808.96,1358.48 L808.96,1358.48 Z M1104,160 L1104,232 L1032,232 L1032,160 L1104,160 Z M528,232 L672,232 L672,160 L528,160 L528,232 L528,232 Z M816,232 L888,232 L888,160 L816,160 L816,232 L816,232 Z M1392,160 L1248,160 L1248,232 L1392,232 L1392,160 L1392,160 Z M1680,480 L1680,560 L1760,560 L1760,480 L1680,480 Z M1616,231.345455 C1616,231.345455 1662.0728,232.163636 1662.0728,268.163636 L1662.0728,304 L1759.99777,304 L1759.99777,231.345455 C1759.99777,231.345455 1761.78018,160 1664.66541,160 L1616.05401,160 L1616.05401,231.345455 L1616,231.345455 Z M672,880 L672,808 L528,808 L528,880 L672,880 L672,880 Z M1392,808 L1248,808 L1248,880 L1392,880 L1392,808 L1392,808 Z M160,559.622564 L240.284209,559.622564 L240.284209,480 L160,480 L160,559.622564 Z M304,808 L268.940943,808 C233.22734,808 234.168249,774.243795 234.168249,774.243795 L234.168249,736 L160.000138,736 L160.000138,809.588527 C160.000138,809.588527 159.427411,880 232.204614,880 L304,880 L304,808 L304,808 Z M1662.05563,736 L1662.05563,774.233251 C1662.05563,774.233251 1656.27843,809.965261 1616,809.965261 L1616,880 L1656.60239,880 C1761.77984,880 1759.99809,809.60794 1759.99809,809.60794 L1759.99809,736 L1662.10962,736 L1662.05563,736 Z M1032,808 L1032,880 L1104,880 L1104,808 L1032,808 Z M816,808 L816,880 L888,880 L888,808 L816,808 Z M257.943757,304 L257.943757,268.122727 C257.943757,234.495455 304,231.304545 304,231.304545 L304,160 L255.298088,160 C201.68279,160 160,188.390909 160,229.136364 L160,304 L257.889764,304 L257.943757,304 Z M1032.21263,720.498047 L1032.21263,317.109375 L962.157726,317.109375 C959.661726,337.605375 954.62172,330.941921 946.98972,341.789921 C939.30972,352.637921 929.94972,361.949921 918.90972,368.669921 C907.77372,375.245921 895.14972,380.189921 881.27772,382.781921 C867.35772,385.373921 853.34172,386.765921 837.98172,386.381921 L891.128904,448.541927 L962.157722,448.541927 L962.157726,720.498047 L1032.21263,720.498047 Z" stroke="none" stroke-width="1" fill-rule="evenodd"/>
</svg>

<svg viewBox="0 0 1920 1920" xmlns="http://www.w3.org/2000/svg">
    <path d="M1652.322 1040.534 258.812 1040c-55.317 0-98.812 42.749-98.812 96.078v528.271c0 53.276 43.049 95.651 98.421 95.651H1661.58c55.372 0 98.421-42.375 98.421-95.65v-528.272c0-53.276-52.305-95.544-107.622-95.544h-.056ZM808.96 1358.48h76.16c0-10.453 1.027-21 3.08-31.64s5.507-20.347 10.36-29.12 11.293-15.867 19.32-21.28c8.027-5.413 17.827-8.12 29.4-8.12 17.173 0 31.267 5.32 42.28 15.96 11.013 10.64 16.52 25.48 16.52 44.52 0 11.947-2.707 22.587-8.12 31.92-5.413 9.333-12.133 17.733-20.16 25.2-8.027 7.467-16.893 14.28-26.6 20.44-9.707 6.16-18.853 12.227-27.44 18.2-16.8 11.573-32.76 22.96-47.88 34.16-15.12 11.2-28.28 23.427-39.48 36.68-11.2 13.253-20.067 28.28-26.6 45.08-6.533 16.8-9.8 36.587-9.8 59.36h287.84v-68.32H902.48c9.707-13.44 20.907-25.2 33.6-35.28a520.677 520.677 0 0 1 39.2-28.28 2976.634 2976.634 0 0 0 40.04-26.6c13.253-8.96 25.107-18.947 35.56-29.96 10.453-11.013 18.853-23.613 25.2-37.8 6.347-14.187 9.52-31.173 9.52-50.96 0-19.04-3.64-36.213-10.92-51.52-7.28-15.307-17.08-28.187-29.4-38.64s-26.6-18.48-42.84-24.08c-16.24-5.6-33.32-8.4-51.24-8.4-23.52 0-44.333 4.013-62.44 12.04s-33.133 19.227-45.08 33.6c-11.947 14.373-20.907 31.173-26.88 50.4-5.973 19.227-8.587 40.04-7.84 62.44ZM1104 160v72h-72v-72h72Zm-576 72h144v-72H528v72Zm288 0h72v-72h-72v72Zm576-72h-144v72h144v-72Zm288 320v80h80v-80h-80Zm-64-248.655s46.073.819 46.073 36.819V304h97.925v-72.655S1761.78 160 1664.665 160h-48.611v71.345H1616ZM672 880v-72H528v72h144Zm720-72h-144v72h144v-72ZM160 559.623h80.284V480H160v79.623ZM304 808h-35.06c-35.713 0-34.772-33.756-34.772-33.756V736H160v73.589S159.427 880 232.205 880H304v-72Zm1358.056-72v38.233s-5.778 35.732-46.056 35.732V880h40.602c105.178 0 103.396-70.392 103.396-70.392V736h-97.942ZM1032 808v72h72v-72h-72Zm-216 0v72h72v-72h-72ZM257.944 304v-35.877c0-33.628 46.056-36.818 46.056-36.818V160h-48.702C201.683 160 160 188.39 160 229.136V304h97.944Zm774.269 416.498V317.109h-70.055c-2.496 20.496-7.536 13.833-15.168 24.68-7.68 10.849-17.04 20.16-28.08 26.88a115.607 115.607 0 0 1-37.632 14.113c-13.92 2.592-27.936 3.984-43.296 3.6l53.147 62.16h71.029v271.956h70.055Z" fill-rule="evenodd"/>
</svg>
